X: 284
T:Shandon Bells
% Nottingham Music Database
S:Kevin Briggs, via EF
Y:AB
M:6/8
K:D
P:A
B|"D"AFD DFA|"D"ded "A"cBA|"Em"BGE EGA|"Em"B2A "A7"Bcd|
"D"AFD DFA|"D"ded "A"cBA|"Em"Bcd "A7"ecA|"D"d3 d2:|
P:B
g|"D"f2d ded|"D"faa afd|"A"cAA eAA|"A"cAc "A7"efg|
"D"f2d ded|"D"faa afd|"G"Bcd "A7"ecA|"D"d3 d2:|


